website/public/Images/logos/github_orange.svg

<svg width="24" height="24" viewBox="0 0 24 24" fill="none" xmlns="http://www.w3.org/2000/svg">
<path d="M11.9897 0.859376C5.66672 0.856819 0.54541 5.97557 0.54541 12.2935C0.54541 17.2895 3.7491 21.5364 8.21075 23.096C8.8116 23.2469 8.71956 22.8199 8.71956 22.5284V20.5469C5.24996 20.9534 5.10933 18.6574 4.87666 18.2739C4.40621 17.471 3.29399 17.2665 3.62638 16.883C4.41643 16.4764 5.22183 16.9852 6.15507 18.3634C6.83007 19.3631 8.14683 19.1943 8.81416 19.0281C8.9599 18.4273 9.27183 17.8903 9.70138 17.4736C6.10649 16.8293 4.60819 14.6355 4.60819 12.0276C4.60819 10.7619 5.02496 9.59858 5.84314 8.66023C5.32155 7.11335 5.89172 5.78892 5.96842 5.59205C7.45393 5.45909 8.99825 6.65568 9.11842 6.75029C9.96217 6.52273 10.9261 6.40256 12.0051 6.40256C13.0892 6.40256 14.0556 6.52784 14.9071 6.75796C15.196 6.53807 16.6278 5.51023 18.0085 5.63551C18.0826 5.83239 18.64 7.12614 18.1491 8.65256C18.9775 9.59347 19.3994 10.767 19.3994 12.0352C19.3994 14.6483 17.8909 16.8446 14.2858 17.4787C14.5945 17.7824 14.8397 18.1445 15.007 18.544C15.1742 18.9435 15.2602 19.3723 15.2599 19.8054V22.6818C15.2804 22.9119 15.2599 23.1395 15.6434 23.1395C20.1715 21.6131 23.4315 17.3355 23.4315 12.296C23.4315 5.97557 18.3076 0.859376 11.9897 0.859376Z" fill="#F26D00"/>
</svg>

<svg xmlns="http://www.w3.org/2000/svg" width="24" height="24" fill="none" xmlns:v="https://vecta.io/nano"><path d="M11.99.859C5.667.857.545 5.976.545 12.294c0 4.996 3.204 9.243 7.665 10.803.601.151.509-.276.509-.568v-1.982c-3.47.406-3.61-1.89-3.843-2.273-.47-.803-1.583-1.007-1.25-1.391.79-.407 1.595.102 2.529 1.48.675 1 1.992.831 2.659.665.146-.601.458-1.138.887-1.554-3.595-.644-5.093-2.838-5.093-5.446 0-1.266.417-2.429 1.235-3.367-.522-1.547.049-2.871.125-3.068 1.486-.133 3.03 1.064 3.15 1.158.844-.228 1.808-.348 2.887-.348 1.084 0 2.05.125 2.902.355.289-.22 1.721-1.248 3.101-1.122.074.197.631 1.491.141 3.017.828.941 1.25 2.114 1.25 3.383 0 2.613-1.509 4.809-5.114 5.444a3.26 3.26 0 0 1 .974 2.327v2.876c.021.23 0 .458.383.458 4.528-1.526 7.788-5.804 7.788-10.844A11.44 11.44 0 0 0 11.99.859z" fill="#f26d00"/></svg>
